dist/img/footer/icon-3.svg

<svg width="20" height="20" viewBox="0 0 20 20" fill="none" xmlns="http://www.w3.org/2000/svg">
<path d="M17.1593 2.84073C15.3273 1.00876 12.8922 0 10.3012 0C10.3011 0 10.3004 0 10.3003 0C9.01886 0.000152588 7.77008 0.248261 6.5889 0.73761C5.40757 1.22696 4.34922 1.93451 3.443 2.84073C1.61118 4.67255 0.602419 7.10815 0.602419 9.69879C0.602419 11.2437 0.975192 12.7791 1.68152 14.147L0.0512718 18.8043C-0.0636269 19.1328 0.0177025 19.4899 0.263979 19.736C0.436251 19.9084 0.662997 20 0.896151 20C0.996096 20 1.09711 19.9832 1.19568 19.9487L5.85297 18.3186C7.22092 19.025 8.75626 19.3977 10.3012 19.3977C12.8918 19.3977 15.3273 18.3888 17.1593 16.557C18.9911 14.7252 20 12.2896 20 9.69894C20 7.10815 18.9912 4.67255 17.1593 2.84073ZM16.3298 15.7275C14.7195 17.338 12.5784 18.2246 10.3012 18.2246C8.90808 18.2246 7.52411 17.8801 6.29883 17.2279C6.07666 17.1098 5.81406 17.0895 5.57831 17.1721L1.34705 18.653L2.82807 14.4217C2.91062 14.1856 2.89017 13.923 2.77207 13.701C2.12006 12.476 1.77536 11.0921 1.77536 9.69879C1.77536 7.42157 2.6622 5.28046 4.27246 3.6702C5.88257 2.06009 8.02338 1.17325 10.3004 1.17294H10.3012C12.5786 1.17294 14.7195 2.05978 16.3298 3.6702C17.9402 5.28046 18.8271 7.42142 18.8271 9.69879C18.8271 11.9762 17.9402 14.1173 16.3298 15.7275Z" fill="white"/>
<path d="M13.9057 10.5645C13.4596 10.1184 12.7336 10.1184 12.2874 10.5645L11.7994 11.0525C10.5877 10.3923 9.60718 9.41174 8.94678 8.20004L9.43476 7.71207C9.88108 7.2659 9.88108 6.53989 9.43476 6.09372L8.11976 4.77872C7.67359 4.33255 6.94758 4.33255 6.50141 4.77872L5.44947 5.83066C4.8469 6.43323 4.81684 7.46915 5.36478 8.74768C5.84055 9.85776 6.71122 11.0779 7.81641 12.183C8.92161 13.2882 10.1417 14.1589 11.2518 14.6347C11.8592 14.895 12.4117 15.0248 12.8892 15.0248C13.4167 15.0248 13.8525 14.8663 14.1688 14.55L15.2207 13.4979V13.498C15.437 13.2818 15.556 12.9945 15.556 12.6889C15.556 12.3831 15.437 12.0958 15.2207 11.8797L13.9057 10.5645ZM13.3393 13.7205C13.1674 13.8925 12.6385 13.9528 11.714 13.5566C10.7377 13.1382 9.64808 12.3558 8.64588 11.3536C7.64368 10.3514 6.86136 9.2619 6.44297 8.28564C6.0467 7.36111 6.10697 6.83209 6.27894 6.66013L7.31073 5.62833L8.58515 6.90289L7.97434 7.51385C7.69816 7.79004 7.63147 8.20889 7.80863 8.55618C8.6117 10.1309 9.86857 11.3878 11.4433 12.1908C11.7907 12.368 12.2096 12.3015 12.4858 12.0251L13.0966 11.4143L14.3711 12.6889L13.3393 13.7205Z" fill="white"/>
</svg>

<svg width="20" height="20" fill="none" xmlns="http://www.w3.org/2000/svg"><path d="M17.16 2.84A9.635 9.635 0 0010.3 0C9.018 0 7.77.248 6.588.738A9.65 9.65 0 003.443 2.84a9.635 9.635 0 00-2.84 6.858c0 1.545.372 3.08 1.079 4.448l-1.63 4.657a.891.891 0 00.212.932.891.891 0 00.932.213l4.657-1.63a9.727 9.727 0 004.448 1.079 9.636 9.636 0 006.858-2.841A9.635 9.635 0 0020 9.699a9.635 9.635 0 00-2.84-6.858zm-.83 12.887a8.47 8.47 0 01-6.029 2.498 8.547 8.547 0 01-4.002-.997.903.903 0 00-.72-.056l-4.232 1.481 1.481-4.231a.904.904 0 00-.056-.721 8.547 8.547 0 01-.997-4.002A8.47 8.47 0 014.272 3.67 8.47 8.47 0 0110.3 1.173h.001A8.47 8.47 0 0116.33 3.67a8.47 8.47 0 012.497 6.03 8.47 8.47 0 01-2.497 6.028z" fill="#fff"/><path d="M13.906 10.565a1.146 1.146 0 00-1.619 0l-.488.488A7.103 7.103 0 018.947 8.2l.488-.488a1.145 1.145 0 000-1.618L8.12 4.779a1.146 1.146 0 00-1.619 0L5.45 5.83c-.602.602-.632 1.638-.084 2.917.476 1.11 1.346 2.33 2.451 3.435 1.106 1.105 2.326 1.976 3.436 2.452.607.26 1.16.39 1.637.39.528 0 .963-.159 1.28-.475l1.052-1.052c.216-.216.335-.503.335-.81 0-.305-.119-.592-.335-.808l-1.315-1.316zm-.567 3.155c-.172.172-.7.233-1.625-.163-.976-.419-2.066-1.201-3.068-2.203C7.644 10.35 6.86 9.262 6.443 8.286c-.396-.925-.336-1.454-.164-1.626L7.31 5.628l1.274 1.275-.61.61a.895.895 0 00-.166 1.043 8.275 8.275 0 003.634 3.635.895.895 0 001.043-.166l.61-.61 1.275 1.274-1.032 1.031z" fill="#fff"/></svg>
